components/AnnouncementBar/logos/color-nasdaq.svg

<svg width="339" height="123" viewBox="0 0 339 123" fill="none" xmlns="http://www.w3.org/2000/svg">
<path d="M251.636 86C239.997 86 232.764 79.2796 232.764 68.4472C232.764 57.205 239.438 50.2106 250.184 50.2106H251.086C252.434 50.2106 254.29 50.2544 256.825 50.5701V37H264.416V84.7769C264.416 84.7769 257.203 86 251.636 86ZM251.568 56.1682C244.214 56.1682 240.639 60.1246 240.639 68.2587C240.639 75.5622 244.953 80.1016 251.884 80.1016C253.217 80.1016 254.743 80.0139 256.823 79.8364V56.6548C254.745 56.3216 253.069 56.1682 251.568 56.1682ZM147.658 84.904L127.153 49.2352L127.147 84.904H120V39.7486H130.005L150.51 75.0997L150.502 39.7486H157.743V84.904H147.658ZM212.974 85.5989C209.521 85.5989 205.922 85.2131 201.636 84.3911L201.172 84.3035V77.9952L201.849 78.1398C205.629 78.9443 208.893 79.6303 212.158 79.6303C214.795 79.6303 220.936 79.2183 220.936 75.3495C220.936 72.1055 216.692 71.2901 213.284 70.6391L213.068 70.5953C212.431 70.4769 211.83 70.3564 211.325 70.2293C206.324 68.936 200.99 66.9918 200.99 60.3131C200.99 53.7987 206.161 50.0659 215.182 50.0659C219.511 50.0659 222.654 50.5262 225.18 50.9032L226.407 51.083V57.205L225.754 57.0866C222.895 56.5627 219.544 56.0235 216.323 56.0235C212.741 56.0235 208.49 56.6921 208.49 59.8681C208.49 62.505 211.969 63.259 215.997 64.1336C221.631 65.3479 228.615 66.8735 228.615 74.5363C228.615 81.5658 222.92 85.5989 212.974 85.5989ZM285.726 85.5989C277.869 85.5989 270.593 84.218 270.593 74.2185C270.593 63.3357 281.845 63.3357 288.572 63.3357C289.24 63.3357 292.402 63.4826 293.372 63.5242C293.363 57.4198 293.286 55.9643 284.405 55.9643C280.884 55.9643 276.974 56.657 273.522 57.2751L272.862 57.3935V51.3657L273.306 51.2715C277.309 50.4605 281.168 50.0659 285.102 50.0659C293.708 50.0659 301 50.9295 301 61.5734V84.7857L300.477 84.8449C294.515 85.5112 289.783 85.5989 285.728 85.5989H285.726ZM288.382 68.7212C281.896 68.7212 277.876 69.6725 277.876 74.407C277.876 79.8868 283.004 80.3405 287.815 80.3405C289.609 80.3405 292.84 80.1104 293.827 80.0402V68.9097C292.437 68.8505 288.82 68.7212 288.382 68.7212ZM179.216 85.5989C171.348 85.5989 164.074 84.218 164.074 74.2185C164.074 63.3357 175.326 63.3357 182.05 63.3357C182.721 63.3357 185.889 63.4826 186.861 63.5242C186.852 57.4198 186.767 55.9643 177.885 55.9643C174.362 55.9643 170.453 56.657 167 57.2751L166.341 57.3935V51.3657L166.796 51.2715C170.673 50.4723 174.623 50.0683 178.582 50.0659C187.187 50.0659 194.481 50.9295 194.481 61.5734V84.7857L193.955 84.8449C187.996 85.5112 183.262 85.5989 179.216 85.5989ZM181.861 68.7212C175.376 68.7212 171.365 69.6725 171.365 74.407C171.365 79.8868 176.484 80.3405 181.296 80.3405C183.099 80.3405 186.329 80.1104 187.316 80.0402V68.9097C185.916 68.8505 182.301 68.7212 181.863 68.7212" fill="#231F20"/>
<mask id="mask0_0:1" style="mask-type:alpha" maskUnits="userSpaceOnUse" x="305" y="48" width="34" height="53">
<path d="M305 48H338.033V101H305V48Z" fill="white"/>
</mask>
<g mask="url(#mask0_0:1)">
<path d="M330.263 100.62V85.6963C327.302 86.1114 325.73 86.1114 324.459 86.1114C321.452 86.1114 318.113 85.4555 315.528 84.3602C309.739 81.9421 306.288 75.8029 306.288 67.9258C306.288 63.995 307.242 56.8068 313.622 52.9334C316.825 51.0122 320.603 50.1907 326.288 50.1907C328.322 50.1907 331.069 50.3453 333.723 50.4998L338.033 50.7251V97.1619L330.263 100.62ZM325.721 56.1951C318.009 56.1929 314.101 60.1458 314.101 67.9258C314.101 77.9428 319.931 80.0473 324.833 80.0473C326.027 80.0473 327.367 80.0473 330.337 79.6675V56.4115C328.012 56.257 326.937 56.1951 325.719 56.1951H325.721Z" fill="#231F20"/>
</g>
<mask id="mask1_0:1" style="mask-type:alpha" maskUnits="userSpaceOnUse" x="56" y="13" width="59" height="72">
<path d="M56 13.0349H115V84.9957H56V13.0349Z" fill="white"/>
</mask>
<g mask="url(#mask1_0:1)">
<path d="M86.6188 13.0349L61.6684 81.4745C61.0389 83.1939 59.4807 84.4031 57.6564 84.5878V84.6205H84.0316C86.0966 84.6205 87.8644 83.3093 88.5221 81.4767L113.481 13.0349H86.6188Z" fill="#0996C7"/>
</g>
<path d="M55.541 83C57.0732 83 58.4149 82.2336 59.2357 81.073C59.3211 80.9519 59.621 80.5291 59.8333 79.9543L69 54.6021L63.6374 39.7964C63.0013 38.2696 61.5926 37.2098 59.9571 37.0277C58.3217 36.8457 56.7167 37.57 55.7643 38.9199C55.6767 39.041 55.3199 39.5806 55.1667 40.0386L46 65.3821L51.3867 80.2472C52.1008 81.9171 53.7341 82.9994 55.541 83Z" fill="#0996C7"/>
<mask id="mask2_0:1" style="mask-type:alpha" maskUnits="userSpaceOnUse" x="-1" y="35" width="59" height="74">
<path d="M-1 35H58V108.558H-1V35Z" fill="white"/>
</mask>
<g mask="url(#mask2_0:1)">
<path d="M57.2745 37.1416H30.6087C28.5437 37.1416 26.7759 38.4432 26.1094 40.2801L1.15897 108.556H28.0214L52.9741 40.2823C53.6362 38.4655 55.3356 37.2279 57.2745 37.1504V37.1416Z" fill="#0996C7"/>
</g>
</svg>

<svg xmlns="http://www.w3.org/2000/svg" width="339" height="123" viewBox="0 0 339 123">
  <path fill="#231F20" d="M251.636 86c-11.639 0-18.872-6.72-18.872-17.553 0-11.242 6.674-18.236 17.42-18.236h.902c1.348 0 3.204.043 5.739.36V37h7.591v47.777S257.203 86 251.636 86Zm-.068-29.832c-7.354 0-10.929 3.957-10.929 12.09 0 7.304 4.314 11.844 11.245 11.844 1.333 0 2.859-.088 4.939-.266V56.655c-2.078-.333-3.754-.487-5.255-.487Zm-103.91 28.736-20.505-35.669-.006 35.669H120V39.749h10.005l20.505 35.35-.008-35.35h7.241v45.155h-10.085Zm65.316.695c-3.453 0-7.052-.386-11.338-1.208l-.464-.088v-6.308l.677.145c3.78.804 7.044 1.49 10.309 1.49 2.637 0 8.778-.412 8.778-4.28 0-3.244-4.244-4.06-7.652-4.71l-.216-.045a29.588 29.588 0 0 1-1.743-.366c-5.001-1.293-10.335-3.237-10.335-9.916 0-6.514 5.171-10.247 14.192-10.247 4.329 0 7.472.46 9.998.837l1.227.18v6.122l-.653-.118c-2.859-.524-6.21-1.064-9.431-1.064-3.582 0-7.833.67-7.833 3.845 0 2.637 3.479 3.391 7.507 4.266 5.634 1.214 12.618 2.74 12.618 10.402 0 7.03-5.695 11.063-15.641 11.063Zm72.752 0c-7.857 0-15.133-1.381-15.133-11.38 0-10.883 11.252-10.883 17.979-10.883.668 0 3.83.147 4.8.188-.009-6.104-.086-7.56-8.967-7.56-3.521 0-7.431.693-10.883 1.311l-.66.119v-6.028l.444-.094c4.003-.811 7.862-1.206 11.796-1.206 8.606 0 15.898.863 15.898 11.507v23.213l-.523.059c-5.962.666-10.694.754-14.749.754h-.002Zm2.656-16.878c-6.486 0-10.506.951-10.506 5.686 0 5.48 5.128 5.934 9.939 5.934 1.794 0 5.025-.23 6.012-.3V68.91c-1.39-.06-5.007-.189-5.445-.189ZM179.216 85.6c-7.868 0-15.142-1.381-15.142-11.38 0-10.883 11.252-10.883 17.976-10.883.671 0 3.839.147 4.811.188-.009-6.104-.094-7.56-8.976-7.56-3.523 0-7.432.693-10.885 1.311l-.659.119v-6.028l.455-.094a58.561 58.561 0 0 1 11.786-1.206c8.605 0 15.899.863 15.899 11.507v23.213l-.526.059c-5.959.666-10.693.754-14.739.754Zm2.645-16.878c-6.485 0-10.496.951-10.496 5.686 0 5.48 5.119 5.934 9.931 5.934 1.803 0 5.033-.23 6.02-.3V68.91c-1.4-.06-5.015-.189-5.453-.189"/>
  <mask id="a" width="34" height="53" x="305" y="48" maskUnits="userSpaceOnUse" style="mask-type:alpha">
    <path fill="#fff" d="M305 48h33.033v53H305V48Z"/>
  </mask>
  <g mask="url(#a)">
    <path fill="#231F20" d="M330.263 100.62V85.696c-2.961.415-4.533.415-5.804.415-3.007 0-6.346-.656-8.931-1.75-5.789-2.419-9.24-8.558-9.24-16.435 0-3.931.954-11.12 7.334-14.993 3.203-1.92 6.981-2.742 12.666-2.742 2.034 0 4.781.154 7.435.309l4.31.225v46.437l-7.77 3.458Zm-4.542-44.425c-7.712-.002-11.62 3.95-11.62 11.73 0 10.018 5.83 12.122 10.732 12.122 1.194 0 2.534 0 5.504-.38V56.412c-2.325-.154-3.4-.216-4.618-.216h.002Z"/>
  </g>
  <mask id="b" width="59" height="72" x="56" y="13" maskUnits="userSpaceOnUse" style="mask-type:alpha">
    <path fill="#fff" d="M56 13.035h59v71.96H56v-71.96Z"/>
  </mask>
  <g mask="url(#b)">
    <path fill="#0996C7" d="m86.619 13.035-24.95 68.44a4.784 4.784 0 0 1-4.013 3.113v.033h26.376a4.771 4.771 0 0 0 4.49-3.144l24.959-68.442H86.619Z"/>
  </g>
  <path fill="#0996C7" d="M55.541 83a4.516 4.516 0 0 0 3.695-1.927c.085-.121.385-.544.597-1.119L69 54.602l-5.363-14.806a4.534 4.534 0 0 0-3.68-2.768 4.52 4.52 0 0 0-4.193 1.892c-.087.121-.444.66-.597 1.119L46 65.382l5.387 14.865A4.523 4.523 0 0 0 55.54 83Z"/>
  <mask id="c" width="59" height="74" x="-1" y="35" maskUnits="userSpaceOnUse" style="mask-type:alpha">
    <path fill="#fff" d="M-1 35h59v73.558H-1V35Z"/>
  </mask>
  <g mask="url(#c)">
    <path fill="#0996C7" d="M57.275 37.142H30.609a4.78 4.78 0 0 0-4.5 3.138L1.16 108.556h26.862l24.953-68.274a4.777 4.777 0 0 1 4.3-3.132v-.008Z"/>
  </g>
</svg>
